X:1
T:Title
%%score { ( 1 3 ) | ( 2 4 ) }
L:1/8
M:4/4
K:Ab
V:1 treble nm="Grand Piano"
V:3 treble 
V:2 bass 
V:4 bass 
V:1
 z4 z2[Q:1/4=100] [CE]2 | [CA]4 [DB]2 [DG]2 | [CA]4 [DB]2 [EG]2 | E2- [EB]2 c2 [Fd]2 | c4 B2 c2 | %5
 d4 c2 B2 | c4 z4 | G2 [FA]2 [EG]2 [=DF]2 | E6 E2 | B4 F2 G2 | [CA]4 [CE]2 c2 | c4 d2 c2 | %12
 c4 B2 c2 | e4 d2 c2 | [DFB]2 [DF]2 [A,FA]2 [=EB]2 | c4 B3 B |[M:3/4] [CA]6 |[M:1/4] [CE][CE] | %18
[M:4/4] E2 E2 E2 E2 | [A,CE]6 [CEA][CEA] | [CEA]4 [B,EG]2 [DEB][DEB] | [DEB]4 [CEA]2 cc | %22
 c2 c2 c2 c2 | [=Ec]6 [Ec][Ec] | [Fd]4 [B,EG]2 [DEG][DEG] | [CEA]4 [A,CE]2 z2 | %26
 [A,DF]4 [A,FA]2 [A,DF]2 | [A,CE]6 [A,E_G][A,EG] | [A,DF]2 [A,DF]2 [DFB]2 [B,FA]2 | E4- [EG]2 E2 | %30
 e4 d2 c2 | [FB]2 [DF]2 [FA]2 [=EB]2 | c c3 B3 B |[M:3/4] [CA]6 |] %34
V:2
 z4 z2 [A,,A,]2 | [A,,A,]4 [E,G,]2 [E,B,]2 | [A,,A,]4 [E,G,]2 [D,B,]2 | %3
 [C,A,]2 [E,G,]2 [A,E]2 [D,A,]2 | A,4 G,2 [A,E]2 | [E,B,E]4 [E,A,E]2 [E,G,E]2 | %6
 [A,E]4 [G,E]2 [A,CE]2 | B,4 z4 | [E,G,]6 [E,G,]2 | [E,G,D]4 [E,A,D]2 [E,B,D]2 | %10
 [A,,A,]4 [A,,A,]2 [A,E]2 | [A,E]4 [G,B,E]2 [A,E]2 | A,4 G,2 [A,E]2 | [A,CE]4 [G,B,E]2 [A,E]2 | %14
 z2 A,2 D,2 [D,A,]2 | [E,A,E]4 [E,G,D]3 [E,G,D] |[M:3/4] [A,,A,]6 |[M:1/4] [A,,A,][A,,A,] | %18
[M:4/4] [E,G,B,]2 [E,A,C]2 [E,B,D]2 [E,G,B,]2 | A,,6 A,,A,, | E,4 E,2 E,E, | A,,4 A,,2 [A,E][A,E] | %22
 [F,A,F]2 [F,A,F]2 [F,A,F]2 [F,A,F]2 | [C,G,]6 [C,G,][C,G,] | [B,,B,]4 E,2 E,E, | A,,4 A,,2 z2 | %26
 D,4 D,2 D,2 | A,,6 C,C, | D,2 D,2 B,,2 =D,2 | z4 B,2 [G,B,]2 | [A,CE]4 [G,B,E]2 [A,E]2 | %31
 [D,D]2 [D,A,]2 [D,A,]2 [D,A,]2 | [E,A,E] [E,A,E]3 [E,G,D]3 [E,G,D] |[M:3/4] [A,,A,]6 |] %34
V:3
 x8 | x8 | x8 | A2 z2 z4 | x8 | x8 | z2 C2 B2 A2 | x8 | x8 | x8 | x8 | x8 | x8 | x8 | x8 | x8 | %16
[M:3/4] x6 |[M:1/4] x2 |[M:4/4] x8 | x8 | x8 | x8 | x8 | x8 | x8 | x8 | x8 | x8 | x8 | [CA]4 z4 | %30
 x8 | x8 | x8 |[M:3/4] x6 |] %34
V:4
 x8 | x8 | x8 | x8 | [E,E]6 z2 | x8 | x8 | E2 z2 [B,,B,]2 [B,,A,]2 | x8 | x8 | x8 | x8 | %12
 [E,E]6 z2 | x8 | D,4 z4 | x8 |[M:3/4] x6 |[M:1/4] x2 |[M:4/4] x8 | x8 | x8 | x8 | x8 | x8 | x8 | %25
 x8 | x8 | x8 | x8 | E,6 z2 | x8 | x8 | x8 |[M:3/4] x6 |] %34

